bernoullicharts/2014_add_x_0_2_bits.svg

<?xml version="1.0" encoding="utf-8" standalone="no"?>
<!DOCTYPE svg PUBLIC "-//W3C//DTD SVG 1.1//EN"
  "http://www.w3.org/Graphics/SVG/1.1/DTD/svg11.dtd">
<!-- Created with matplotlib (https://matplotlib.org/) -->
<svg height="345.6pt" version="1.1" viewBox="0 0 460.8 345.6" width="460.8pt" xmlns="http://www.w3.org/2000/svg" xmlns:xlink="http://www.w3.org/1999/xlink">
 <defs>
  <style type="text/css">
*{stroke-linecap:butt;stroke-linejoin:round;}
  </style>
 </defs>
 <g id="figure_1">
  <g id="patch_1">
   <path d="M 0 345.6 
L 460.8 345.6 
L 460.8 0 
L 0 0 
z
" style="fill:#ffffff;"/>
  </g>
  <g id="axes_1">
   <g id="patch_2">
    <path d="M 57.6 307.584 
L 414.72 307.584 
L 414.72 41.472 
L 57.6 41.472 
z
" style="fill:#ffffff;"/>
   </g>
   <g id="matplotlib.axis_1">
    <g id="xtick_1">
     <g id="line2d_1">
      <defs>
       <path d="M 0 0 
L 0 3.5 
" id="mdb0dc3e7ad" style="stroke:#000000;stroke-width:0.8;"/>
      </defs>
      <g>
       <use style="stroke:#000000;stroke-width:0.8;" x="73.784019" xlink:href="#mdb0dc3e7ad" y="307.584"/>
      </g>
     </g>
     <g id="text_1">
      <text style="font-family:DejaVu Sans;font-size:10px;font-style:normal;font-weight:normal;text-anchor:middle;" transform="rotate(-0, 73.784019, 322.182437)" x="73.784019" y="322.182437">0.0</text>
     </g>
    </g>
    <g id="xtick_2">
     <g id="line2d_2">
      <g>
       <use style="stroke:#000000;stroke-width:0.8;" x="122.491943" xlink:href="#mdb0dc3e7ad" y="307.584"/>
      </g>
     </g>
     <g id="text_2">
      <text style="font-family:DejaVu Sans;font-size:10px;font-style:normal;font-weight:normal;text-anchor:middle;" transform="rotate(-0, 122.491943, 322.182437)" x="122.491943" y="322.182437">0.1</text>
     </g>
    </g>
    <g id="xtick_3">
     <g id="line2d_3">
      <g>
       <use style="stroke:#000000;stroke-width:0.8;" x="171.199866" xlink:href="#mdb0dc3e7ad" y="307.584"/>
      </g>
     </g>
     <g id="text_3">
      <text style="font-family:DejaVu Sans;font-size:10px;font-style:normal;font-weight:normal;text-anchor:middle;" transform="rotate(-0, 171.199866, 322.182437)" x="171.199866" y="322.182437">0.2</text>
     </g>
    </g>
    <g id="xtick_4">
     <g id="line2d_4">
      <g>
       <use style="stroke:#000000;stroke-width:0.8;" x="219.90779" xlink:href="#mdb0dc3e7ad" y="307.584"/>
      </g>
     </g>
     <g id="text_4">
      <text style="font-family:DejaVu Sans;font-size:10px;font-style:normal;font-weight:normal;text-anchor:middle;" transform="rotate(-0, 219.90779, 322.182437)" x="219.90779" y="322.182437">0.3</text>
     </g>
    </g>
    <g id="xtick_5">
     <g id="line2d_5">
      <g>
       <use style="stroke:#000000;stroke-width:0.8;" x="268.615713" xlink:href="#mdb0dc3e7ad" y="307.584"/>
      </g>
     </g>
     <g id="text_5">
      <text style="font-family:DejaVu Sans;font-size:10px;font-style:normal;font-weight:normal;text-anchor:middle;" transform="rotate(-0, 268.615713, 322.182437)" x="268.615713" y="322.182437">0.4</text>
     </g>
    </g>
    <g id="xtick_6">
     <g id="line2d_6">
      <g>
       <use style="stroke:#000000;stroke-width:0.8;" x="317.323636" xlink:href="#mdb0dc3e7ad" y="307.584"/>
      </g>
     </g>
     <g id="text_6">
      <text style="font-family:DejaVu Sans;font-size:10px;font-style:normal;font-weight:normal;text-anchor:middle;" transform="rotate(-0, 317.323636, 322.182437)" x="317.323636" y="322.182437">0.5</text>
     </g>
    </g>
    <g id="xtick_7">
     <g id="line2d_7">
      <g>
       <use style="stroke:#000000;stroke-width:0.8;" x="366.03156" xlink:href="#mdb0dc3e7ad" y="307.584"/>
      </g>
     </g>
     <g id="text_7">
      <text style="font-family:DejaVu Sans;font-size:10px;font-style:normal;font-weight:normal;text-anchor:middle;" transform="rotate(-0, 366.03156, 322.182437)" x="366.03156" y="322.182437">0.6</text>
     </g>
    </g>
    <g id="text_8">
     <text style="font-family:DejaVu Sans;font-size:10px;font-style:normal;font-weight:normal;text-anchor:middle;" transform="rotate(-0, 236.16, 335.860562)" x="236.16" y="335.860562">Probability</text>
    </g>
   </g>
   <g id="matplotlib.axis_2">
    <g id="ytick_1">
     <g id="line2d_8">
      <defs>
       <path d="M 0 0 
L -3.5 0 
" id="m8beb1b913c" style="stroke:#000000;stroke-width:0.8;"/>
      </defs>
      <g>
       <use style="stroke:#000000;stroke-width:0.8;" x="57.6" xlink:href="#m8beb1b913c" y="289.209057"/>
      </g>
     </g>
     <g id="text_9">
      <text style="font-family:DejaVu Sans;font-size:10px;font-style:normal;font-weight:normal;text-anchor:end;" transform="rotate(-0, 50.6, 293.008276)" x="50.6" y="293.008276">50</text>
     </g>
    </g>
    <g id="ytick_2">
     <g id="line2d_9">
      <g>
       <use style="stroke:#000000;stroke-width:0.8;" x="57.6" xlink:href="#m8beb1b913c" y="253.918234"/>
      </g>
     </g>
     <g id="text_10">
      <text style="font-family:DejaVu Sans;font-size:10px;font-style:normal;font-weight:normal;text-anchor:end;" transform="rotate(-0, 50.6, 257.717453)" x="50.6" y="257.717453">100</text>
     </g>
    </g>
    <g id="ytick_3">
     <g id="line2d_10">
      <g>
       <use style="stroke:#000000;stroke-width:0.8;" x="57.6" xlink:href="#m8beb1b913c" y="218.627412"/>
      </g>
     </g>
     <g id="text_11">
      <text style="font-family:DejaVu Sans;font-size:10px;font-style:normal;font-weight:normal;text-anchor:end;" transform="rotate(-0, 50.6, 222.426631)" x="50.6" y="222.426631">150</text>
     </g>
    </g>
    <g id="ytick_4">
     <g id="line2d_11">
      <g>
       <use style="stroke:#000000;stroke-width:0.8;" x="57.6" xlink:href="#m8beb1b913c" y="183.336589"/>
      </g>
     </g>
     <g id="text_12">
      <text style="font-family:DejaVu Sans;font-size:10px;font-style:normal;font-weight:normal;text-anchor:end;" transform="rotate(-0, 50.6, 187.135808)" x="50.6" y="187.135808">200</text>
     </g>
    </g>
    <g id="ytick_5">
     <g id="line2d_12">
      <g>
       <use style="stroke:#000000;stroke-width:0.8;" x="57.6" xlink:href="#m8beb1b913c" y="148.045767"/>
      </g>
     </g>
     <g id="text_13">
      <text style="font-family:DejaVu Sans;font-size:10px;font-style:normal;font-weight:normal;text-anchor:end;" transform="rotate(-0, 50.6, 151.844986)" x="50.6" y="151.844986">250</text>
     </g>
    </g>
    <g id="ytick_6">
     <g id="line2d_13">
      <g>
       <use style="stroke:#000000;stroke-width:0.8;" x="57.6" xlink:href="#m8beb1b913c" y="112.754944"/>
      </g>
     </g>
     <g id="text_14">
      <text style="font-family:DejaVu Sans;font-size:10px;font-style:normal;font-weight:normal;text-anchor:end;" transform="rotate(-0, 50.6, 116.554163)" x="50.6" y="116.554163">300</text>
     </g>
    </g>
    <g id="ytick_7">
     <g id="line2d_14">
      <g>
       <use style="stroke:#000000;stroke-width:0.8;" x="57.6" xlink:href="#m8beb1b913c" y="77.464122"/>
      </g>
     </g>
     <g id="text_15">
      <text style="font-family:DejaVu Sans;font-size:10px;font-style:normal;font-weight:normal;text-anchor:end;" transform="rotate(-0, 50.6, 81.26334)" x="50.6" y="81.26334">350</text>
     </g>
    </g>
    <g id="ytick_8">
     <g id="line2d_15">
      <g>
       <use style="stroke:#000000;stroke-width:0.8;" x="57.6" xlink:href="#m8beb1b913c" y="42.173299"/>
      </g>
     </g>
     <g id="text_16">
      <text style="font-family:DejaVu Sans;font-size:10px;font-style:normal;font-weight:normal;text-anchor:end;" transform="rotate(-0, 50.6, 45.972518)" x="50.6" y="45.972518">400</text>
     </g>
    </g>
    <g id="text_17">
     <text style="font-family:DejaVu Sans;font-size:10px;font-style:normal;font-weight:normal;text-anchor:middle;" transform="rotate(-90, 25.432812, 174.528)" x="25.432812" y="174.528">Average Bits Consumed Per Call</text>
    </g>
   </g>
   <g id="line2d_16">
    <path clip-path="url(#p545b5d9ea4)" d="M 73.832727 295.488 
L 78.751736 295.122387 
L 83.670744 291.689296 
L 88.589752 294.878175 
L 93.50876 292.102904 
L 98.427769 293.873092 
L 103.346777 292.846835 
L 108.265785 291.678003 
L 113.184793 290.259312 
L 118.103802 293.105164 
L 123.02281 292.69579 
L 127.941818 290.712446 
L 132.860826 292.469929 
L 137.779835 293.394548 
L 142.698843 295.054629 
L 147.617851 294.71019 
L 152.53686 294.530913 
L 157.455868 290.300249 
L 162.374876 287.522156 
L 167.293884 291.329329 
L 172.212893 289.92052 
L 177.131901 290.914309 
L 182.050909 283.593581 
L 186.969917 284.477263 
L 191.888926 287.75931 
L 196.807934 286.906684 
L 201.726942 285.089912 
L 206.64595 287.499569 
L 211.564959 287.026672 
L 216.483967 283.09951 
L 221.402975 278.373363 
L 226.321983 285.432939 
L 231.240992 277.210177 
L 236.16 282.845416 
L 241.079008 284.62972 
L 245.998017 280.408937 
L 250.917025 280.651738 
L 255.836033 285.355299 
L 260.755041 278.634515 
L 265.67405 273.548401 
L 270.593058 281.903857 
M 280.431074 279.968508 
L 285.350083 273.83214 
M 295.188099 269.608534 
L 300.107107 265.613613 
L 305.026116 272.485442 
L 309.945124 256.764086 
L 314.864132 265.681371 
L 319.78314 269.289505 
M 329.621157 250.942512 
L 334.540165 262.167817 
M 349.29719 246.171193 
L 354.216198 246.494457 
L 359.135207 244.749679 
L 364.054215 256.608807 
L 368.973223 241.349055 
M 378.81124 229.85554 
L 383.730248 239.62404 
M 398.487273 224.590149 
" style="fill:none;stroke:#1f77b4;stroke-linecap:square;stroke-width:1.5;"/>
   </g>
   <g id="line2d_17">
    <path clip-path="url(#p545b5d9ea4)" d="M 73.832727 268.188431 
L 78.751736 265.147774 
L 83.670744 266.802208 
L 88.589752 268.050091 
L 93.50876 269.65653 
L 98.427769 254.410894 
L 103.346777 260.342576 
L 108.265785 257.587068 
L 113.184793 256.480348 
L 118.103802 255.383509 
L 123.02281 257.747994 
L 127.941818 254.960019 
L 132.860826 258.916826 
L 137.779835 253.633084 
L 142.698843 254.526648 
L 147.617851 254.683339 
L 152.53686 249.084803 
L 157.455868 247.077461 
L 162.374876 246.79937 
L 167.293884 243.79118 
L 172.212893 245.023535 
L 177.131901 247.505186 
L 182.050909 238.95916 
L 186.969917 246.864305 
L 191.888926 241.717491 
L 196.807934 239.505462 
L 201.726942 235.833805 
L 206.64595 243.425567 
L 211.564959 238.874463 
L 216.483967 242.197446 
L 221.402975 227.492466 
L 226.321983 231.237529 
L 231.240992 233.675419 
L 236.16 220.23385 
L 241.079008 222.824196 
L 245.998017 218.205334 
L 250.917025 207.56868 
L 255.836033 220.060219 
L 260.755041 200.685558 
L 265.67405 195.970704 
L 270.593058 211.04412 
L 275.512066 201.69911 
L 280.431074 206.598888 
L 285.350083 201.597473 
L 290.269091 196.41678 
L 295.188099 189.861157 
L 300.107107 186.179618 
L 305.026116 195.743431 
L 309.945124 173.208123 
M 319.78314 191.706161 
L 324.702149 161.864241 
L 329.621157 152.966719 
L 334.540165 158.565255 
M 349.29719 141.330629 
" style="fill:none;stroke:#ff7f0e;stroke-linecap:square;stroke-width:1.5;"/>
   </g>
   <g id="line2d_18">
    <path clip-path="url(#p545b5d9ea4)" d="M 236.16 53.568 
L 241.079008 78.031598 
L 245.998017 78.281457 
M 255.836033 134.753831 
L 260.755041 133.41278 
M 270.593058 137.203014 
M 280.431074 186.515587 
M 295.188099 213.061343 
M 314.864132 209.65225 
" style="fill:none;stroke:#2ca02c;stroke-linecap:square;stroke-width:1.5;"/>
   </g>
   <g id="patch_3">
    <path d="M 57.6 307.584 
L 57.6 41.472 
" style="fill:none;stroke:#000000;stroke-linecap:square;stroke-linejoin:miter;stroke-width:0.8;"/>
   </g>
   <g id="patch_4">
    <path d="M 414.72 307.584 
L 414.72 41.472 
" style="fill:none;stroke:#000000;stroke-linecap:square;stroke-linejoin:miter;stroke-width:0.8;"/>
   </g>
   <g id="patch_5">
    <path d="M 57.6 307.584 
L 414.72 307.584 
" style="fill:none;stroke:#000000;stroke-linecap:square;stroke-linejoin:miter;stroke-width:0.8;"/>
   </g>
   <g id="patch_6">
    <path d="M 57.6 41.472 
L 414.72 41.472 
" style="fill:none;stroke:#000000;stroke-linecap:square;stroke-linejoin:miter;stroke-width:0.8;"/>
   </g>
   <g id="text_18">
    <text style="font-family:DejaVu Sans;font-size:12px;font-style:normal;font-weight:normal;text-anchor:middle;" transform="rotate(-0, 236.16, 35.472)" x="236.16" y="35.472">Avg. Bits Consumed</text>
   </g>
   <g id="legend_1">
    <g id="patch_7">
     <path d="M 291.171562 93.506375 
L 407.72 93.506375 
Q 409.72 93.506375 409.72 91.506375 
L 409.72 48.472 
Q 409.72 46.472 407.72 46.472 
L 291.171562 46.472 
Q 289.171562 46.472 289.171562 48.472 
L 289.171562 91.506375 
Q 289.171562 93.506375 291.171562 93.506375 
z
" style="fill:#ffffff;opacity:0.8;stroke:#cccccc;stroke-linejoin:miter;"/>
    </g>
    <g id="line2d_19">
     <path d="M 293.171562 54.570438 
L 313.171562 54.570438 
" style="fill:none;stroke:#1f77b4;stroke-linecap:square;stroke-width:1.5;"/>
    </g>
    <g id="line2d_20"/>
    <g id="text_19">
     <text style="font-family:DejaVu Sans;font-size:10px;font-style:normal;font-weight:normal;text-anchor:start;" transform="rotate(-0, 321.171562, 58.070438)" x="321.171562" y="58.070438">2014 Add. x+0.2</text>
    </g>
    <g id="line2d_21">
     <path d="M 293.171562 69.248563 
L 313.171562 69.248563 
" style="fill:none;stroke:#ff7f0e;stroke-linecap:square;stroke-width:1.5;"/>
    </g>
    <g id="line2d_22"/>
    <g id="text_20">
     <text style="font-family:DejaVu Sans;font-size:10px;font-style:normal;font-weight:normal;text-anchor:start;" transform="rotate(-0, 321.171562, 72.748563)" x="321.171562" y="72.748563">2016 Add. x+0.2</text>
    </g>
    <g id="line2d_23">
     <path d="M 293.171562 83.926688 
L 313.171562 83.926688 
" style="fill:none;stroke:#2ca02c;stroke-linecap:square;stroke-width:1.5;"/>
    </g>
    <g id="line2d_24"/>
    <g id="text_21">
     <text style="font-family:DejaVu Sans;font-size:10px;font-style:normal;font-weight:normal;text-anchor:start;" transform="rotate(-0, 321.171562, 87.426688)" x="321.171562" y="87.426688">2019 Add. x+0.2</text>
    </g>
   </g>
  </g>
 </g>
 <defs>
  <clipPath id="p545b5d9ea4">
   <rect height="266.112" width="357.12" x="57.6" y="41.472"/>
  </clipPath>
 </defs>
</svg>

<svg height="460.8" viewBox="0 0 460.8 345.6" width="614.4" xmlns="http://www.w3.org/2000/svg" xmlns:xlink="http://www.w3.org/1999/xlink"><defs><style>*{stroke-linecap:butt;stroke-linejoin:round}</style></defs><g id="figure_1"><path d="M0 345.6h460.8V0H0z" fill="#fff" id="patch_1"/><g id="axes_1"><path d="M57.6 307.584h357.12V41.472H57.6z" fill="#fff" id="patch_2"/><g id="matplotlib.axis_1"><g id="xtick_1"><g id="line2d_1"><defs><path d="M0 0v3.5" id="mdb0dc3e7ad" stroke="#000" stroke-width=".8"/></defs><use x="73.784" xlink:href="#mdb0dc3e7ad" y="307.584" stroke="#000" stroke-width=".8"/></g><text x="73.784" y="322.182" font-family="DejaVu Sans" font-size="10" font-weight="400" text-anchor="middle" id="text_1">0.0</text></g><g id="xtick_2"><use x="122.492" xlink:href="#mdb0dc3e7ad" y="307.584" stroke="#000" stroke-width=".8" id="line2d_2"/><text x="122.492" y="322.182" font-family="DejaVu Sans" font-size="10" font-weight="400" text-anchor="middle" id="text_2">0.1</text></g><g id="xtick_3"><use x="171.2" xlink:href="#mdb0dc3e7ad" y="307.584" stroke="#000" stroke-width=".8" id="line2d_3"/><text x="171.2" y="322.182" font-family="DejaVu Sans" font-size="10" font-weight="400" text-anchor="middle" id="text_3">0.2</text></g><g id="xtick_4"><use x="219.908" xlink:href="#mdb0dc3e7ad" y="307.584" stroke="#000" stroke-width=".8" id="line2d_4"/><text x="219.908" y="322.182" font-family="DejaVu Sans" font-size="10" font-weight="400" text-anchor="middle" id="text_4">0.3</text></g><g id="xtick_5"><use x="268.616" xlink:href="#mdb0dc3e7ad" y="307.584" stroke="#000" stroke-width=".8" id="line2d_5"/><text x="268.616" y="322.182" font-family="DejaVu Sans" font-size="10" font-weight="400" text-anchor="middle" id="text_5">0.4</text></g><g id="xtick_6"><use x="317.324" xlink:href="#mdb0dc3e7ad" y="307.584" stroke="#000" stroke-width=".8" id="line2d_6"/><text x="317.324" y="322.182" font-family="DejaVu Sans" font-size="10" font-weight="400" text-anchor="middle" id="text_6">0.5</text></g><g id="xtick_7"><use x="366.032" xlink:href="#mdb0dc3e7ad" y="307.584" stroke="#000" stroke-width=".8" id="line2d_7"/><text x="366.032" y="322.182" font-family="DejaVu Sans" font-size="10" font-weight="400" text-anchor="middle" id="text_7">0.6</text></g><text x="236.16" y="335.861" font-family="DejaVu Sans" font-size="10" font-weight="400" text-anchor="middle" id="text_8">Probability</text></g><g id="matplotlib.axis_2"><g id="ytick_1"><g id="line2d_8"><defs><path d="M0 0h-3.5" id="m8beb1b913c" stroke="#000" stroke-width=".8"/></defs><use x="57.6" xlink:href="#m8beb1b913c" y="289.209" stroke="#000" stroke-width=".8"/></g><text x="50.6" y="293.008" font-family="DejaVu Sans" font-size="10" font-weight="400" text-anchor="end" id="text_9">50</text></g><g id="ytick_2"><use x="57.6" xlink:href="#m8beb1b913c" y="253.918" stroke="#000" stroke-width=".8" id="line2d_9"/><text x="50.6" y="257.717" font-family="DejaVu Sans" font-size="10" font-weight="400" text-anchor="end" id="text_10">100</text></g><g id="ytick_3"><use x="57.6" xlink:href="#m8beb1b913c" y="218.627" stroke="#000" stroke-width=".8" id="line2d_10"/><text x="50.6" y="222.427" font-family="DejaVu Sans" font-size="10" font-weight="400" text-anchor="end" id="text_11">150</text></g><g id="ytick_4"><use x="57.6" xlink:href="#m8beb1b913c" y="183.337" stroke="#000" stroke-width=".8" id="line2d_11"/><text x="50.6" y="187.136" font-family="DejaVu Sans" font-size="10" font-weight="400" text-anchor="end" id="text_12">200</text></g><g id="ytick_5"><use x="57.6" xlink:href="#m8beb1b913c" y="148.046" stroke="#000" stroke-width=".8" id="line2d_12"/><text x="50.6" y="151.845" font-family="DejaVu Sans" font-size="10" font-weight="400" text-anchor="end" id="text_13">250</text></g><g id="ytick_6"><use x="57.6" xlink:href="#m8beb1b913c" y="112.755" stroke="#000" stroke-width=".8" id="line2d_13"/><text x="50.6" y="116.554" font-family="DejaVu Sans" font-size="10" font-weight="400" text-anchor="end" id="text_14">300</text></g><g id="ytick_7"><use x="57.6" xlink:href="#m8beb1b913c" y="77.464" stroke="#000" stroke-width=".8" id="line2d_14"/><text x="50.6" y="81.263" font-family="DejaVu Sans" font-size="10" font-weight="400" text-anchor="end" id="text_15">350</text></g><g id="ytick_8"><use x="57.6" xlink:href="#m8beb1b913c" y="42.173" stroke="#000" stroke-width=".8" id="line2d_15"/><text x="50.6" y="45.973" font-family="DejaVu Sans" font-size="10" font-weight="400" text-anchor="end" id="text_16">400</text></g><text transform="rotate(-90 25.433 174.528)" x="25.433" y="174.528" font-family="DejaVu Sans" font-size="10" font-weight="400" text-anchor="middle" id="text_17">Average Bits Consumed Per Call</text></g><path clip-path="url(#p545b5d9ea4)" d="M73.833 295.488l4.919-.366 4.919-3.433 4.919 3.19 4.919-2.776 4.919 1.77 4.919-1.026 4.919-1.169 4.919-1.419 4.919 2.846 4.919-.41 4.919-1.983 4.919 1.758 4.919.925 4.919 1.66 4.919-.345 4.919-.18 4.919-4.23 4.919-2.778 4.919 3.807 4.919-1.408 4.919.993 4.919-7.32 4.919.883 4.919 3.282 4.919-.852 4.919-1.817 4.919 2.41 4.919-.473 4.919-3.927 4.919-4.727 4.919 7.06 4.919-8.223 4.919 5.635 4.919 1.785 4.919-4.221 4.919.243 4.919 4.703 4.919-6.72 4.92-5.087 4.918 8.356m9.838-1.935l4.92-6.137m9.837-4.223l4.92-3.995 4.918 6.871 4.92-15.72 4.918 8.916 4.92 3.609m9.837-18.347l4.92 11.225m14.756-15.997l4.92.323 4.918-1.744 4.92 11.859 4.918-15.26m9.838-11.493l4.92 9.768m14.756-15.034" fill="none" stroke="#1f77b4" stroke-linecap="square" stroke-width="1.5" id="line2d_16"/><path clip-path="url(#p545b5d9ea4)" d="M73.833 268.188l4.919-3.04 4.919 1.654 4.919 1.248 4.919 1.607 4.919-15.246 4.919 5.932 4.919-2.756 4.919-1.107 4.919-1.096 4.919 2.364 4.919-2.788 4.919 3.957 4.919-5.284 4.919.894 4.919.156 4.919-5.598 4.919-2.008 4.919-.278 4.919-3.008 4.919 1.233 4.919 2.481 4.919-8.546 4.919 7.905 4.919-5.147 4.919-2.212 4.919-3.671 4.919 7.592 4.919-4.552 4.919 3.323 4.919-14.705 4.919 3.746 4.919 2.437 4.919-13.441 4.919 2.59 4.919-4.619 4.919-10.636 4.919 12.491 4.919-19.374 4.92-4.715 4.918 15.073 4.92-9.345 4.918 4.9 4.92-5.002 4.918-5.18 4.92-6.556 4.918-3.681 4.92 9.563 4.918-22.535m9.838 18.498l4.92-29.842 4.918-8.897 4.92 5.598m14.756-17.234" fill="none" stroke="#ff7f0e" stroke-linecap="square" stroke-width="1.5" id="line2d_17"/><path clip-path="url(#p545b5d9ea4)" d="M236.16 53.568l4.919 24.464 4.919.25m9.838 56.472l4.919-1.341M314.864 209.652" fill="none" stroke="#2ca02c" stroke-linecap="square" stroke-width="1.5" id="line2d_18"/><path d="M57.6 307.584V41.472" fill="none" stroke="#000" stroke-linecap="square" stroke-width=".8" id="patch_3"/><path d="M414.72 307.584V41.472" fill="none" stroke="#000" stroke-linecap="square" stroke-width=".8" id="patch_4"/><path d="M57.6 307.584h357.12" fill="none" stroke="#000" stroke-linecap="square" stroke-width=".8" id="patch_5"/><path d="M57.6 41.472h357.12" fill="none" stroke="#000" stroke-linecap="square" stroke-width=".8" id="patch_6"/><text x="236.16" y="35.472" font-family="DejaVu Sans" font-size="12" font-weight="400" text-anchor="middle" id="text_18">Avg. Bits Consumed</text><g id="legend_1"><path d="M291.172 93.506H407.72q2 0 2-2V48.472q0-2-2-2H291.172q-2 0-2 2v43.034q0 2 2 2z" fill="#fff" opacity=".8" stroke="#ccc" id="patch_7"/><path d="M293.172 54.57h20" fill="none" stroke="#1f77b4" stroke-linecap="square" stroke-width="1.5" id="line2d_19"/><text x="321.172" y="58.07" font-family="DejaVu Sans" font-size="10" font-weight="400" id="text_19">2014 Add. x+0.2</text><path d="M293.172 69.249h20" fill="none" stroke="#ff7f0e" stroke-linecap="square" stroke-width="1.5" id="line2d_21"/><text x="321.172" y="72.749" font-family="DejaVu Sans" font-size="10" font-weight="400" id="text_20">2016 Add. x+0.2</text><path d="M293.172 83.927h20" fill="none" stroke="#2ca02c" stroke-linecap="square" stroke-width="1.5" id="line2d_23"/><text x="321.172" y="87.427" font-family="DejaVu Sans" font-size="10" font-weight="400" id="text_21">2019 Add. x+0.2</text></g></g></g><defs><clipPath id="p545b5d9ea4"><path d="M57.6 41.472h357.12v266.112H57.6z"/></clipPath></defs></svg>
